X:1
T:Rejoice in the Lord Alway
T:James McGranahan
T:Rejoice in the Lord Alway
T:Public Domain
T:Public Domain
C:James McGranahan
Z:Public Domain
%%score ( 1 2 ) ( 3 4 )
L:1/8
M:4/4
K:Eb
V:1 treble 
V:2 treble 
V:3 bass 
V:4 bass 
V:1
 [B,E]2 | [EG]2 [EG]2 ([EG][FA])([GB][Ac]) | [Ac]2 [GB]2 [GB]2 G2 | [GB]2 [FA]2 [FA]2 [DF]2 | %4
w: 1.~O|praise the Lord * with *|heart and voice, With|own Word your doubts|
w: 2.~My|life is hid * with *|Thine, O Lord, And|tered from the world’s|
w: 3.~For|no- thing anx- * ious *|I shall be, But|ing Thee in ev-|
w: 4.~The|joys that mem- * ory *|turns to pain, I|for joys that ne-|
 [EG]2 [GB]2 [GB]2 [B,E]2 | [EG]2 [EG]2 ([EG][FA])([GB][Ac]) | [Ac]2 [GB]2 [GB]2 [EG]2 | %7
w: de- stroy, Let those|that trust in * Him *|re- joice, Yea, let|
w: a- larm; Why should|I sink be- * neath *|my load, When lean-|
w: ery- thing, With thanks|for ev- ery * gift *|from Thee, My trou-|
w: ver end; My loss|I count my * rich- *|est gain, For Christ|
 [DB]3 [DB] [DA]2 [DF]2 | E6 ||"^Refrain" E2 | [Ae]6 [Ac]2 | [GB]2 [EG]>[EG] [EG]2 [GB]2 | %12
w: them shout for joy.|||||
w: ing on Thine arm.|Re-|re-|in the|Lord, Re- joice in the|
w: bles all take wing.|||||
w: His joy doth send.|||||
 [GB]2 [FA]>[FA] ([FA]2 [DF]2) | [EG]2 [GB]4 E2 | [ce]6 [Ac]2 | [GB]2 [EG]>[EG] [EG]2 [GB]>[GB] | %16
w: ||||
w: Lord al- way; Re- *|joice, re- joice|the Lord,|And a- gain, I say, re-|
w: ||||
w: ||||
 [AB]2 [DA]2 [DF]2 [Ad]2 | [Ge]6 |] %18
w: ||
w: joice. * * *||
w: ||
w: ||
V:2
 x2 | x8 | x6 G2 | x8 | x8 | x8 | x8 | x8 | E6 || E2 | x8 | x8 | x8 | x6 E2 | x8 | x8 | x8 | x6 |] %18
w: ||God’s||||||||||||||||
w: ||shel-||||||joice,|joice||||in|||||
w: ||trust-||||||||||||||||
w: ||leave||||||||||||||||
V:3
 [E,G,]2 | [E,B,]2 [E,B,]2 [E,B,]2 [E,E]2 | [E,E]2 [E,E]2 [E,B,]2 [=E,C]2 | %3
w: ~|~ ~ ~ ~|~ ~ ~ ~|
 [F,C]2 [F,C]2 [B,,D]2 [B,,B,]2 | [E,B,]2 [E,E]2 [E,E]2 [E,G,]2 | [E,B,]2 [E,B,]2 [E,B,]2 [E,E]2 | %6
w: ~ ~ ~ ~|~ ~ ~ ~|~ ~ ~ ~|
 [E,E]2 [E,E]2 [E,E]2 [E,B,]2 | [F,B,]3 [F,B,] [B,,B,]2 [B,,A,]2 | [E,G,]6 || E,2 | [A,C]6 [A,E]2 | %11
w: ~ ~ ~ ~|~ ~ ~ ~|~|~|~ ~|
 [E,E]2 [E,B,]>[E,B,] [E,B,]2 [=E,C]2 | [F,C]2 [F,C]>[F,C] [B,,B,]4 | [E,B,]2 [E,E]4 E,2 | %14
w: ~ ~ ~ ~ ~|~ ~ ~ ~|~ Re- joice|
 ([A,,A,]G,,) [A,,A,]>[B,,A,] ([C,A,]D,)([E,A,]F,) | [E,G,E]2 [E,B,]>[E,B,] [E,B,]2 [E,E]>[E,E] | %16
w: the * Lord, re- joice * in *||
 [D,D]2 [B,,B,]2 [B,,B,]2 [B,,B,]2 | [E,B,]6 |] %18
w: ||
V:4
 x2 | x8 | x8 | x8 | x8 | x8 | x8 | x8 | x6 || E,2 | x8 | x8 | x8 | x6 E,2 | C6 E2 | x8 | x8 | %17
w: |||||||||~||||in|the Lord|||
 x6 |] %18
w: |

